assets/img/braze_icons/home-01.svg

<svg fill="none" height="24" viewBox="0 0 24 24" width="24" xmlns="http://www.w3.org/2000/svg"><path clip-rule="evenodd" d="m11.4773 1.33636c.3423-.09268.7031-.09268 1.0454 0 .3973.10759.7319.37024.9989.57987.0255.02002.0504.03955.0746.05842l6.7823 5.27512c.0261.0203.052.0404.0777.06034.3767.29229.7085.54979.9557.8841.217.29338.3787.62389.477.97529.1121.40042.1117.82043.1112 1.2972-.0001.0325-.0001.0653-.0001.0984v7.2735c0 .5271 0 .9818-.0306 1.3564-.0323.3954-.1036.7886-.2964 1.167-.2876.5644-.7466 1.0234-1.311 1.311-.3784.1928-.7716.2641-1.167.2964-.3746.0306-.8293.0306-1.3564.0306h-11.67718c-.52714 0-.98189 0-1.35646-.0306-.39535-.0323-.78856-.1036-1.16694-.2964-.56449-.2876-1.02343-.7466-1.31105-1.311-.1928-.3784-.26411-.7716-.29641-1.167-.03061-.3746-.03059-.8293-.03057-1.3565v-7.2734c0-.0331-.00004-.0659-.00007-.0984-.00052-.47677-.00097-.89678.11111-1.2972.09836-.3514.26001-.68191.477-.97529.24726-.3343.57907-.59181.9557-.88409.0257-.01994.0516-.04005.07771-.06035l6.78226-5.27512c.0243-.01887.0492-.0384.0747-.05842.267-.20963.6015-.47228.9989-.57987z" fill="#801ed7" fill-rule="evenodd"/></svg>

<svg width="24" height="24" viewBox="0 0 24 24" fill="none" xmlns="http://www.w3.org/2000/svg">
<path fill-rule="evenodd" clip-rule="evenodd" d="M11.4773 1.33636C11.8196 1.24368 12.1804 1.24368 12.5227 1.33636C12.92 1.44395 13.2546 1.7066 13.5216 1.91623C13.5471 1.93625 13.572 1.95578 13.5962 1.97465L20.3785 7.24977C20.4046 7.27007 20.4305 7.29017 20.4562 7.31011C20.8329 7.6024 21.1647 7.8599 21.4119 8.19421C21.6289 8.48759 21.7906 8.8181 21.8889 9.1695C22.001 9.56992 22.0006 9.98993 22.0001 10.4667C22 10.4992 22 10.532 22 10.5651V17.8386C22 18.3657 22 18.8204 21.9694 19.195C21.9371 19.5904 21.8658 19.9836 21.673 20.362C21.3854 20.9264 20.9264 21.3854 20.362 21.673C19.9836 21.8658 19.5904 21.9371 19.195 21.9694C18.8204 22 18.3657 22 17.8386 22H6.16142C5.63428 22 5.17953 22 4.80496 21.9694C4.40961 21.9371 4.0164 21.8658 3.63802 21.673C3.07353 21.3854 2.61459 20.9264 2.32697 20.362C2.13417 19.9836 2.06286 19.5904 2.03056 19.195C1.99995 18.8204 1.99997 18.3657 1.99999 17.8385L1.99999 10.5651C1.99999 10.532 1.99995 10.4992 1.99992 10.4667C1.9994 9.98993 1.99895 9.56992 2.11103 9.1695C2.20939 8.8181 2.37104 8.48759 2.58803 8.19421C2.83529 7.85991 3.1671 7.6024 3.54373 7.31012C3.56943 7.29018 3.59533 7.27007 3.62144 7.24977L10.4037 1.97465C10.428 1.95578 10.4529 1.93625 10.4784 1.91623C10.7454 1.7066 11.0799 1.44395 11.4773 1.33636Z" fill="#801ED7"/>
</svg>
